src/images/header-phone-icon.svg

<svg width="16" height="16" viewBox="0 0 16 16" fill="none" xmlns="http://www.w3.org/2000/svg">
<g clip-path="url(#clip0_54_1157)">
<path d="M14.6667 11.28V13.28C14.6675 13.4657 14.6294 13.6494 14.555 13.8195C14.4807 13.9897 14.3716 14.1424 14.2348 14.2679C14.0979 14.3934 13.9364 14.489 13.7605 14.5485C13.5847 14.6079 13.3983 14.63 13.2134 14.6133C11.1619 14.3904 9.19137 13.6894 7.46004 12.5667C5.84926 11.5431 4.48359 10.1774 3.46004 8.56665C2.33336 6.82745 1.6322 4.84731 1.41337 2.78665C1.39671 2.60229 1.41862 2.41649 1.4777 2.24107C1.53679 2.06564 1.63175 1.90444 1.75655 1.76773C1.88134 1.63102 2.03324 1.52179 2.20256 1.447C2.37189 1.37221 2.55493 1.33349 2.74004 1.33332H4.74004C5.06357 1.33013 5.37723 1.4447 5.62254 1.65567C5.86786 1.86664 6.02809 2.15961 6.07337 2.47998C6.15779 3.12003 6.31434 3.74847 6.54004 4.35332C6.62973 4.59193 6.64915 4.85126 6.59597 5.10057C6.5428 5.34988 6.41928 5.57872 6.24004 5.75998L5.39337 6.60665C6.34241 8.27568 7.72434 9.65761 9.39337 10.6067L10.24 9.75998C10.4213 9.58074 10.6501 9.45722 10.8994 9.40405C11.1488 9.35088 11.4081 9.37029 11.6467 9.45998C12.2516 9.68568 12.88 9.84224 13.52 9.92665C13.8439 9.97234 14.1396 10.1355 14.3511 10.385C14.5625 10.6345 14.6748 10.953 14.6667 11.28Z" stroke="white" stroke-width="1.5" stroke-linecap="round" stroke-linejoin="round"/>
<path d="M9.3667 1.33337C10.7255 1.47655 11.9948 2.07924 12.9646 3.04176C13.9344 4.00428 14.5466 5.26898 14.7 6.62671" stroke="white" stroke-width="1.5" stroke-linecap="round" stroke-linejoin="round"/>
<path d="M9.3667 4C10.0224 4.12929 10.624 4.45268 11.0936 4.92821C11.5632 5.40373 11.879 6.00942 12 6.66667" stroke="white" stroke-width="1.5" stroke-linecap="round" stroke-linejoin="round"/>
</g>
<defs>
<clipPath id="clip0_54_1157">
<rect width="16" height="16" fill="white"/>
</clipPath>
</defs>
</svg>

<svg width="16" height="16" fill="none" xmlns="http://www.w3.org/2000/svg"><g clip-path="url(#a)" stroke="#fff" stroke-width="1.5" stroke-linecap="round" stroke-linejoin="round"><path d="M14.667 11.28v2a1.332 1.332 0 0 1-1.454 1.333 13.194 13.194 0 0 1-5.753-2.046 13 13 0 0 1-4-4 13.193 13.193 0 0 1-2.047-5.78A1.333 1.333 0 0 1 2.74 1.333h2A1.333 1.333 0 0 1 6.073 2.48a8.56 8.56 0 0 0 .467 1.873 1.333 1.333 0 0 1-.3 1.407l-.847.847a10.667 10.667 0 0 0 4 4l.847-.847a1.334 1.334 0 0 1 1.407-.3 8.56 8.56 0 0 0 1.873.467 1.334 1.334 0 0 1 1.147 1.353ZM9.367 1.333A6 6 0 0 1 14.7 6.627M9.367 4A3.333 3.333 0 0 1 12 6.667"/></g><defs><clipPath id="a"><path fill="#fff" d="M0 0h16v16H0z"/></clipPath></defs></svg>
